Humanity/apps/24/system-upgrade.svg

<?xml version="1.0" encoding="UTF-8" standalone="no"?>
<!-- Created with Inkscape (http://www.inkscape.org/) -->

<svg
   xmlns:svg="http://www.w3.org/2000/svg"
   xmlns="http://www.w3.org/2000/svg"
   xmlns:xlink="http://www.w3.org/1999/xlink"
   version="1.0"
   width="24"
   height="24"
   id="svg2">
  <defs
     id="defs4">
    <linearGradient
       id="linearGradient5128">
      <stop
         id="stop5130"
         style="stop-color:#eee;stop-opacity:1"
         offset="0" />
      <stop
         id="stop5132"
         style="stop-color:#a2a2a2;stop-opacity:1"
         offset="1" />
    </linearGradient>
    <linearGradient
       x1="86.132919"
       y1="105.105"
       x2="84.63858"
       y2="20.895"
       id="linearGradient3241"
       xlink:href="#linearGradient5128"
       gradientUnits="userSpaceOnUse"
       gradientTransform="matrix(0.1562313,0,0,0.1562313,2.0012016,2.1574324)" />
    <linearGradient
       id="linearGradient3397">
      <stop
         id="stop3399"
         style="stop-color:#aaa;stop-opacity:1"
         offset="0" />
      <stop
         id="stop3401"
         style="stop-color:#8c8c8c;stop-opacity:1"
         offset="1" />
    </linearGradient>
    <linearGradient
       x1="40"
       y1="1"
       x2="40"
       y2="23.019524"
       id="linearGradient3228"
       xlink:href="#linearGradient3397"
       gradientUnits="userSpaceOnUse"
       gradientTransform="translate(-24.5,0)" />
    <linearGradient
       x1="63.9995"
       y1="3.1001"
       x2="63.9995"
       y2="122.8994"
       id="linearGradient3309"
       gradientUnits="userSpaceOnUse">
      <stop
         id="stop3311"
         style="stop-color:#f6f6f6;stop-opacity:1"
         offset="0" />
      <stop
         id="stop3313"
         style="stop-color:#d2d2d2;stop-opacity:1"
         offset="1" />
    </linearGradient>
    <linearGradient
       x1="34"
       y1="1"
       x2="34"
       y2="23.00024"
       id="linearGradient3218"
       xlink:href="#linearGradient3309"
       gradientUnits="userSpaceOnUse"
       gradientTransform="translate(-24.5,0)" />
    <linearGradient
       id="linearGradient10691">
      <stop
         id="stop10693"
         style="stop-color:black;stop-opacity:1"
         offset="0" />
      <stop
         id="stop10695"
         style="stop-color:black;stop-opacity:0"
         offset="1" />
    </linearGradient>
    <radialGradient
       cx="6.702713"
       cy="73.615715"
       r="7.228416"
       fx="6.702713"
       fy="73.615715"
       id="radialGradient2411"
       xlink:href="#linearGradient10691"
       gradientUnits="userSpaceOnUse"
       gradientTransform="matrix(1.660115,0,0,0.3458573,0.8727276,-3.9605294)" />
    <linearGradient
       id="linearGradient4222">
      <stop
         id="stop4224"
         style="stop-color:white;stop-opacity:1"
         offset="0" />
      <stop
         id="stop4226"
         style="stop-color:white;stop-opacity:0"
         offset="1" />
    </linearGradient>
    <linearGradient
       x1="30.925467"
       y1="28.26301"
       x2="3.8764322"
       y2="28.26301"
       id="linearGradient2532"
       xlink:href="#linearGradient4222"
       gradientUnits="userSpaceOnUse"
       gradientTransform="matrix(0,-0.3704967,-0.3617496,0,-11.632037,27.595814)" />
    <linearGradient
       id="linearGradient5432">
      <stop
         id="stop5434"
         style="stop-color:#ce5c00;stop-opacity:1"
         offset="0" />
      <stop
         id="stop5436"
         style="stop-color:#ce5c00;stop-opacity:0"
         offset="1" />
    </linearGradient>
    <linearGradient
       x1="15.53005"
       y1="16.50103"
       x2="15.53005"
       y2="24.047995"
       id="linearGradient2530"
       xlink:href="#linearGradient5432"
       gradientUnits="userSpaceOnUse"
       gradientTransform="translate(-37.140352,2.2637597)" />
    <linearGradient
       id="linearGradient2442">
      <stop
         id="stop2444"
         style="stop-color:#fcaf3e;stop-opacity:1"
         offset="0" />
      <stop
         id="stop2446"
         style="stop-color:#f57900;stop-opacity:0"
         offset="1" />
    </linearGradient>
    <linearGradient
       x1="22.173235"
       y1="20.489962"
       x2="46.895916"
       y2="20.489962"
       id="linearGradient2528"
       xlink:href="#linearGradient2442"
       gradientUnits="userSpaceOnUse"
       gradientTransform="matrix(0,0.319447,-0.313352,0,-13.654071,11.17789)" />
  </defs>
  <g
     id="layer1">
    <g
       id="g2568">
      <g
         id="g2486">
        <path
           d="m 24.000001,21.5 c 0,1.380712 -5.372583,2.5 -12,2.5 C 5.3725835,24 3e-7,22.880712 3e-7,21.5 3e-7,20.119288 5.3725835,19 12.000001,19 c 6.627417,0 12,1.119288 12,2.5 z"
           id="path10689"
           style="opacity:0.2;fill:url(#radialGradient2411);fill-opacity:1;fill-rule:nonzero;stroke:none;stroke-width:0.80000001;marker:none;visibility:visible;display:inline;overflow:visible" />
        <path
           d="M 10.1875,1.5 C 9.799134,1.5 9.5,1.7991339 9.5,2.1875 l 0,1.6875 C 8.988333,4.0322247 8.496816,4.2537684 8.03125,4.5 L 6.84375,3.3125 c -0.274616,-0.2746162 -0.725384,-0.2746162 -1,0 L 3.3125,5.84375 c -0.274616,0.2746162 -0.274616,0.7253836 0,1 L 4.5,8.03125 C 4.253769,8.4968155 4.032225,8.9883329 3.875,9.5 l -1.6875,0 C 1.799134,9.5 1.5,9.7991344 1.5,10.1875 l 0,3.625 C 1.5,14.200866 1.799134,14.5 2.1875,14.5 l 1.6875,0 c 0.157225,0.511667 0.378769,1.003185 0.625,1.46875 l -1.1875,1.1875 c -0.274616,0.274616 -0.274616,0.725384 0,1 l 2.53125,2.53125 c 0.274616,0.274616 0.725384,0.274616 1,0 L 8.03125,19.5 C 8.496816,19.746232 8.988333,19.967775 9.5,20.125 l 0,1.6875 c 0,0.388366 0.299135,0.6875 0.6875,0.6875 l 3.625,0 c 0.388366,0 0.6875,-0.299134 0.6875,-0.6875 l 0,-1.6875 c 0.511667,-0.157225 1.003185,-0.378768 1.46875,-0.625 l 1.1875,1.1875 c 0.274616,0.274616 0.725384,0.274616 1,0 l 2.53125,-2.53125 c 0.274616,-0.274616 0.274616,-0.725384 0,-1 L 19.5,15.96875 C 19.746232,15.503185 19.967775,15.011667 20.125,14.5 l 1.6875,0 c 0.388366,0 0.6875,-0.299134 0.6875,-0.6875 l 0,-3.625 C 22.5,9.7991341 22.200866,9.5 21.8125,9.5 l -1.6875,0 C 19.967775,8.9883329 19.746232,8.4968155 19.5,8.03125 l 1.1875,-1.1875 c 0.274616,-0.2746162 0.274616,-0.7253837 0,-1 L 18.15625,3.3125 c -0.274616,-0.2746162 -0.725384,-0.2746162 -1,0 L 15.96875,4.5 C 15.503185,4.2537684 15.011667,4.0322247 14.5,3.875 l 0,-1.6875 C 14.5,1.7991341 14.200866,1.5 13.8125,1.5 l -3.625,0 z M 12,9 c 1.656,0 3,1.344 3,3 0,1.656 -1.344,3 -3,3 -1.656,0 -3,-1.344 -3,-3 0,-1.656 1.344,-3 3,-3 z"
           id="rect2426"
           style="fill:url(#linearGradient3218);fill-opacity:1;fill-rule:nonzero;stroke:url(#linearGradient3228);stroke-width:1;stroke-linecap:butt;stroke-linejoin:round;stroke-miterlimit:4;stroke-opacity:1;stroke-dasharray:none;stroke-dashoffset:0;marker:none;visibility:visible;display:block;overflow:visible;enable-background:accumulate" />
        <path
           d="m 12,6 c -3.3084557,-2e-7 -5.9999999,2.6915446 -5.9999999,6 0,3.308455 2.6915442,6 5.9999999,6 3.308455,-1e-6 6,-2.691545 6,-6 0,-3.3084554 -2.691545,-6 -6,-6 z m 0,2.7692308 c 1.783385,0 3.230769,1.4473842 3.230769,3.2307692 0,1.783385 -1.447384,3.230769 -3.230769,3.230769 -1.783385,0 -3.2307692,-1.447384 -3.2307692,-3.230769 0,-1.783385 1.4473842,-3.2307692 3.2307692,-3.2307692 z"
           id="path3315"
           style="opacity:0.05;fill:black;fill-opacity:1;stroke:none" />
        <path
           d="m 11.999999,5.4999995 c -3.5840997,0 -6.4999994,2.9158997 -6.4999994,6.4999995 C 5.4999996,15.5841 8.4158993,18.5 11.999999,18.5 15.584101,18.5 18.5,15.5841 18.5,11.999999 18.5,8.4158992 15.584101,5.4999995 11.999999,5.4999995 z"
           id="path28"
           style="fill:none;stroke:url(#linearGradient3241);stroke-width:1;stroke-miterlimit:4;stroke-dasharray:none" />
      </g>
    </g>
    <g
       transform="translate(38.465159,-2.4273822)"
       id="g3323">
      <path
         d="m -14.964306,18.76376 -6.191561,-7.000853 -6.160531,7.000853 2.676046,0 0,8.133434 7,0 0,-8.133434 2.676046,0 z"
         id="path2851"
         style="fill:url(#linearGradient2528);fill-opacity:1;fill-rule:nonzero;stroke:url(#linearGradient2530);stroke-width:0.99829447;stroke-linecap:round;stroke-linejoin:round;stroke-miterlimit:4;stroke-opacity:1;stroke-dasharray:none;stroke-dashoffset:0;marker:none;visibility:visible;display:inline;overflow:visible" />
      <path
         d="m -17.213949,17.76376 -3.926403,-4.545115 -4.036938,4.545115 1.536938,0 0,9.164475 5,0 0,-9.164475 1.426403,0 z"
         id="path2853"
         style="opacity:0.35400008;fill:none;stroke:url(#linearGradient2532);stroke-width:0.99829447;stroke-linecap:butt;stroke-linejoin:miter;stroke-miterlimit:4;stroke-opacity:1;stroke-dasharray:none;stroke-dashoffset:0;marker:none;visibility:visible;display:inline;overflow:visible" />
    </g>
  </g>
</svg>

<?xml version="1.0" encoding="UTF-8" standalone="no"?>
<!-- Created with Inkscape (http://www.inkscape.org/) -->
<svg id="svg2587" xmlns="http://www.w3.org/2000/svg" height="24" width="24" version="1.0" xmlns:xlink="http://www.w3.org/1999/xlink">
 <defs id="defs2589">
  <linearGradient id="linearGradient3241" y2="20.895" gradientUnits="userSpaceOnUse" x2="84.639" gradientTransform="matrix(.15623 0 0 .15623 2.0012 2.1574)" y1="105.1" x1="86.133">
   <stop id="stop5130" style="stop-color:#eee" offset="0"/>
   <stop id="stop5132" style="stop-color:#a2a2a2" offset="1"/>
  </linearGradient>
  <linearGradient id="linearGradient3228" y2="23.02" gradientUnits="userSpaceOnUse" x2="40" gradientTransform="translate(-24.5)" y1="1" x1="40">
   <stop id="stop3399" style="stop-color:#aaa" offset="0"/>
   <stop id="stop3401" style="stop-color:#8c8c8c" offset="1"/>
  </linearGradient>
  <linearGradient id="linearGradient3218" y2="23" gradientUnits="userSpaceOnUse" x2="34" gradientTransform="translate(-24.5)" y1="1" x1="34">
   <stop id="stop3311" style="stop-color:#f6f6f6" offset="0"/>
   <stop id="stop3313" style="stop-color:#d2d2d2" offset="1"/>
  </linearGradient>
  <radialGradient id="radialGradient2411" gradientUnits="userSpaceOnUse" cy="73.616" cx="6.7027" gradientTransform="matrix(1.6601 0 0 .34586 .87273 -3.9605)" r="7.2284">
   <stop id="stop10693" offset="0"/>
   <stop id="stop10695" style="stop-opacity:0" offset="1"/>
  </radialGradient>
  <linearGradient id="linearGradient2574" y2="18.892" gradientUnits="userSpaceOnUse" x2="21.875" gradientTransform="matrix(.37050 0 0 -.36175 -24.51 24.959)" y1="37.685" x1="32.239">
   <stop id="stop4224-8" style="stop-color:#fff" offset="0"/>
   <stop id="stop4226-8" style="stop-color:#fff;stop-opacity:0" offset="1"/>
  </linearGradient>
  <linearGradient id="linearGradient2572" y2="19" gradientUnits="userSpaceOnUse" x2="9" gradientTransform="translate(-32.178 -1.8738)" y1="19" x1="24.004">
   <stop id="stop3305" style="stop-color:#cc7032" offset="0"/>
   <stop id="stop3307" style="stop-color:#bb2d13" offset=".82713"/>
   <stop id="stop3309" style="stop-color:#a87300;stop-opacity:0" offset="1"/>
  </linearGradient>
  <linearGradient id="linearGradient2570" y2="12.162" gradientUnits="userSpaceOnUse" x2="47.225" gradientTransform="matrix(-.31945 0 0 -.31335 -8.092 22.937)" y1="12.162" x1=".26927">
   <stop id="stop2519" style="stop-color:#ecb56c" offset="0"/>
   <stop id="stop3315" style="stop-color:#e86225" offset=".82443"/>
   <stop id="stop3317" style="stop-color:#b07c0b;stop-opacity:0" offset="1"/>
  </linearGradient>
 </defs>
 <g id="layer1">
  <g id="g2568">
   <g id="g2486">
    <path id="path10689" style="opacity:.2;fill:url(#radialGradient2411)" d="m24 21.5c0 1.381-5.373 2.5-12 2.5-6.6274 0-12-1.119-12-2.5 3e-7 -1.381 5.3726-2.5 12-2.5 6.627 0 12 1.119 12 2.5z"/>
    <path id="rect2426" style="stroke-linejoin:round;stroke:url(#linearGradient3228);display:block;fill:url(#linearGradient3218)" d="m10.188 1.5c-0.3889 0-0.688 0.2991-0.688 0.6875v1.6875c-0.5117 0.1572-1.0032 0.3788-1.4688 0.625l-1.1874-1.1875c-0.2747-0.2746-0.7254-0.2746-1 0l-2.5313 2.5313c-0.2746 0.2746-0.2746 0.7253 0 1l1.1875 1.1874c-0.2462 0.4656-0.4678 0.9571-0.625 1.4688h-1.6875c-0.3884 0-0.6875 0.2991-0.6875 0.688v3.624c0 0.389 0.2991 0.688 0.6875 0.688h1.6875c0.1572 0.512 0.3788 1.003 0.625 1.469l-1.1875 1.187c-0.2746 0.275-0.2746 0.726 0 1l2.5313 2.532c0.2746 0.274 0.7253 0.274 1 0l1.1874-1.188c0.4656 0.246 0.9571 0.468 1.4688 0.625v1.687c0 0.389 0.2991 0.688 0.688 0.688h3.624c0.389 0 0.688-0.299 0.688-0.688v-1.687c0.512-0.157 1.003-0.379 1.469-0.625l1.187 1.188c0.275 0.274 0.726 0.274 1 0l2.532-2.532c0.274-0.274 0.274-0.725 0-1l-1.188-1.187c0.246-0.466 0.468-0.957 0.625-1.469h1.687c0.389 0 0.688-0.299 0.688-0.688v-3.624c0-0.3889-0.299-0.688-0.688-0.688h-1.687c-0.157-0.5117-0.379-1.0032-0.625-1.4688l1.188-1.1874c0.274-0.2747 0.274-0.7254 0-1l-2.532-2.5313c-0.274-0.2746-0.725-0.2746-1 0l-1.187 1.1875c-0.466-0.2462-0.957-0.4678-1.469-0.625v-1.6875c0-0.3884-0.299-0.6875-0.688-0.6875h-3.624zm1.812 7.5c1.656 0 3 1.344 3 3s-1.344 3-3 3-3-1.344-3-3 1.344-3 3-3z"/>
    <path id="path3315" style="opacity:.05" d="m12 6c-3.3085 0-6 2.6915-6 6 0 3.308 2.6915 6 6 6 3.308 0 6-2.692 6-6 0-3.3085-2.692-6-6-6zm0 2.7692c1.783 0 3.231 1.4478 3.231 3.2308s-1.448 3.231-3.231 3.231-3.2308-1.448-3.2308-3.231 1.4478-3.2308 3.2308-3.2308z"/>
    <path id="path28" style="stroke:url(#linearGradient3241);fill:none" d="m12 5.5c-3.5841 0-6.5 2.9159-6.5 6.5 0 3.584 2.9159 6.5 6.5 6.5 3.584 0 6.5-2.916 6.5-6.5 0-3.5841-2.916-6.5-6.5-6.5z"/>
   </g>
  </g>
  <g id="g2566" transform="matrix(0 -1 1 0 1.874 .82215)">
   <path id="path2911" style="stroke-linejoin:round;stroke:url(#linearGradient2572);stroke-width:0.998;fill:url(#linearGradient2570)" d="m-22.679 18.626h7.001v3.001l7.001-6.001-7.001-6v3h-7.001"/>
   <path id="path2913" style="opacity:.3;stroke:url(#linearGradient2574);stroke-width:.99829;fill:none" d="m-22.678 17.626h8v1.751l4.545-3.751-4.545-3.8v1.8h-8"/>
  </g>
 </g>
</svg>
